logos/lvis.svg

<svg xmlns="http://www.w3.org/2000/svg" width="700" height="503" style="shape-rendering:geometricPrecision;text-rendering:geometricPrecision;image-rendering:optimizeQuality;fill-rule:evenodd;clip-rule:evenodd"><path style="opacity:.997" fill="#15a5ff" d="M345.5-.5h2c-.317 61.66.017 122.993 1 184a3573.153 3573.153 0 0 1-38 90.5c-4.224 1.45-6.724-.05-7.5-4.5-9.513-23.688-19.013-47.355-28.5-71 .31-1.238.81-1.238 1.5 0 .5-62.666.667-125.332.5-188 22.821-5.449 45.821-9.116 69-11z"/><path style="opacity:.998" fill="#18a0ff" d="M347.5-.5h47v453c-14.597 8.12-30.264 13.12-47 15 .167-68.001 0-136.001-.5-204-.69 1.238-1.19 1.238-1.5 0a4285.402 4285.402 0 0 1 35.5-82c7.221-17.453 1.388-25.286-17.5-23.5a17.842 17.842 0 0 0-5.5 4.5c-3.181 7.026-6.348 14.026-9.5 21a8657.974 8657.974 0 0 1-1-184z"/><path style="opacity:.997" fill="#189dff" d="M394.5-.5h13c3.462.982 7.129 1.315 11 1-.66 52.383.007 104.55 2 156.5a7.293 7.293 0 0 0-3 2c.228.399.562.565 1 .5a57.09 57.09 0 0 0-5.5 7c-.667 48-.667 96 0 144 1.273 3.097 3.107 5.764 5.5 8-.438-.065-.772.101-1 .5a7.293 7.293 0 0 0 3 2 1793.87 1793.87 0 0 0-2 119.5 201.367 201.367 0 0 1-24 12V-.5z"/><path style="opacity:.997" fill="#1c99ff" d="M418.5.5a508.41 508.41 0 0 1 82 13c.167 49.334 0 98.668-.5 148a9.454 9.454 0 0 1-2.5 1.5c.228.399.562.565 1 .5-24.361 16.943-29.527 38.61-15.5 65 5.284 6.034 11.451 10.701 18.5 14-1.288 13.126-1.288 26.626 0 40.5-2.772-.052-5.106-1.219-7-3.5-.607.124-.94.457-1 1-7.835-4.015-14.001-2.348-18.5 5a30.485 30.485 0 0 0 0 11c2.696 3.861 5.863 7.194 9.5 10-.438-.065-.772.101-1 .5a73.374 73.374 0 0 0 18 10 2244.61 2244.61 0 0 0-1 94.5 267.644 267.644 0 0 0-41 11.5 1031.253 1031.253 0 0 0-41 17.5 1793.87 1793.87 0 0 1 2-119.5 7.293 7.293 0 0 1-3-2c.228-.399.562-.565 1-.5 6.047 2.77 12.047 2.604 18-.5 2.117-1.731 3.617-3.898 4.5-6.5.667-48.667.667-97.333 0-146-5.769-8.186-13.269-10.186-22.5-6-.438.065-.772-.101-1-.5a7.293 7.293 0 0 1 3-2 3072.132 3072.132 0 0 1-2-156.5z"/><path style="opacity:.997" fill="#14aaff" d="M276.5 10.5c.167 62.668 0 125.334-.5 188-.69-1.238-1.19-1.238-1.5 0a618.284 618.284 0 0 1-12.5-30c-4.027-9.58-11.193-13.08-21.5-10.5-8.562 5.239-10.395 12.405-5.5 21.5a19892.137 19892.137 0 0 1 43.5 101c-.768.763-1.268 1.763-1.5 3-.5 54.332-.667 108.666-.5 163-17.696-13.677-36.696-25.343-57-35v-88c7.674.166 15.341 0 23-.5-15.997-.5-31.997-.667-48-.5-11.671.167-23.338 0-35-.5 28.503-.168 56.836-.668 85-1.5 7.331-1.675 10.998-6.342 11-14-1.206-6.384-4.872-10.884-11-13.5a2948.783 2948.783 0 0 1-77-1.5 380.934 380.934 0 0 1 39-1h13v-263c18.393-7.353 37.393-13.02 57-17z"/><path style="opacity:.996" fill="#1e92ff" d="M500.5 13.5c24.918 5.969 48.584 14.969 71 27 .167 39.335 0 78.668-.5 118-3.185-1.752-6.352-2.085-9.5-1-16.362-2.807-32.696-2.64-49 .5a347.957 347.957 0 0 0-14 5.5c-.438.065-.772-.101-1-.5a9.454 9.454 0 0 0 2.5-1.5c.5-49.332.667-98.666.5-148z"/><path style="opacity:.998" fill="#12adff" d="M219.5 27.5v263h-13v-258c4.034-2.237 8.368-3.904 13-5z"/><path style="opacity:.997" fill="#11b1ff" d="M206.5 32.5v258a380.934 380.934 0 0 0-39 1c-6.924-2.423-11.758-7.09-14.5-14l-1-111c-5.329-9.329-12.829-11.495-22.5-6.5a37.84 37.84 0 0 0-5 5.5 2099.063 2099.063 0 0 1-1-90c25.754-17.712 53.42-32.046 83-43z"/><path style="opacity:.995" fill="#1f8eff" d="M571.5 40.5a148.755 148.755 0 0 1 28 17c.333 39.339 0 78.672-1 118a47.814 47.814 0 0 0-13-10c-.607.124-.94.457-1 1a96.667 96.667 0 0 0-23-9c3.148-1.085 6.315-.752 9.5 1 .5-39.332.667-78.665.5-118z"/><path style="opacity:.996" fill="#208bff" d="M599.5 57.5c16.504 10.499 30.837 23.499 43 39v305c-14.085 4.022-28.418 5.022-43 3 .308-36.691-.025-73.357-1-110 4.093-11.401 4.926-23.067 2.5-35-3.454-10.284-9.954-17.951-19.5-23 .06-.543.393-.876 1-1 6.273 3.607 11.606 8.273 16 14a435.734 435.734 0 0 0 0-59 35.061 35.061 0 0 1-8 6c-.607-.124-.94-.457-1-1 7.071-3.476 9.905-9.142 8.5-17-3.145-5.495-7.645-9.495-13.5-12 .06-.543.393-.876 1-1a47.814 47.814 0 0 1 13 10c1-39.328 1.333-78.661 1-118z"/><path style="opacity:.995" fill="#0eb8ff" d="M123.5 75.5c-.306 30.388.028 60.388 1 90 .172.992-.162 1.658-1 2 .065-.438-.101-.772-.5-1l-1 2c-.667 39-.667 78 0 117 .807 3.949 1.307 3.949 1.5 0 1.268 2.405 1.935 5.072 2 8-.617.111-1.117.444-1.5 1-.5 29.331-.667 58.665-.5 88-24.828-6.605-48.495-15.938-71-28v-217c20.631-24.308 44.298-44.975 71-62z"/><path style="opacity:.986" fill="#2187ff" d="M642.5 96.5c25.258 29.183 42.091 62.849 50.5 101a451.029 451.029 0 0 1 6.5 40v45c-2.431 32.711-11.265 63.711-26.5 93-7.075 12.288-17.241 20.955-30.5 26v-305z"/><path style="opacity:.981" fill="#0cbdff" d="M52.5 137.5v217c-29.244-15.564-46.91-39.564-53-72v-34c6.682-42.36 24.349-79.36 53-111z"/><path style="opacity:1" fill="#fdfdff" d="M561.5 157.5a96.667 96.667 0 0 1 23 9c5.855 2.505 10.355 6.505 13.5 12 1.405 7.858-1.429 13.524-8.5 17a40.914 40.914 0 0 1-9-.5 47.343 47.343 0 0 0-14-7.5c-16.268-6.862-32.935-7.696-50-2.5a39.56 39.56 0 0 0-11.5 9.5c-3.458 8.913-1.625 16.413 5.5 22.5a47.356 47.356 0 0 0 12 5 1654.303 1654.303 0 0 1 48 9.5 124.253 124.253 0 0 1 11 5c9.546 5.049 16.046 12.716 19.5 23 2.426 11.933 1.593 23.599-2.5 35-6.573 11.559-16.24 19.559-29 24-30.214 8.68-58.548 4.68-85-12-3.637-2.806-6.804-6.139-9.5-10a30.485 30.485 0 0 1 0-11c4.499-7.348 10.665-9.015 18.5-5 20.773 16.106 43.773 20.273 69 12.5 10.544-5.248 14.378-13.748 11.5-25.5-.883-2.602-2.383-4.769-4.5-6.5a114.436 114.436 0 0 0-13-6 384.994 384.994 0 0 0-38-7 168.414 168.414 0 0 1-17-5.5c-7.049-3.299-13.216-7.966-18.5-14-14.027-26.39-8.861-48.057 15.5-65a347.957 347.957 0 0 1 14-5.5c16.304-3.14 32.638-3.307 49-.5z"/><path style="opacity:1" fill="#fdfeff" d="M167.5 291.5c25.497.832 51.163 1.332 77 1.5 6.128 2.616 9.794 7.116 11 13.5-.002 7.658-3.669 12.325-11 14-30.002.167-60.002 0-90-.5-14.047-4.221-23.714-13.054-29-26.5-.065-2.928-.732-5.595-2-8v-118c.838-.342 1.172-1.008 1-2a37.84 37.84 0 0 1 5-5.5c9.671-4.995 17.171-2.829 22.5 6.5l1 111c2.742 6.91 7.576 11.577 14.5 14zM274.5 198.5c9.487 23.645 18.987 47.312 28.5 71 .776 4.45 3.276 5.95 7.5 4.5 13.084-30 25.751-60.167 38-90.5 3.152-6.974 6.319-13.974 9.5-21a17.842 17.842 0 0 1 5.5-4.5c18.888-1.786 24.721 6.047 17.5 23.5a4285.402 4285.402 0 0 0-35.5 82 630.034 630.034 0 0 0-19.5 43c-2.46 6.092-6.627 10.592-12.5 13.5-7.45 2.053-13.616.22-18.5-5.5a266.436 266.436 0 0 1-16.5-34 19892.137 19892.137 0 0 0-43.5-101c-4.895-9.095-3.062-16.261 5.5-21.5 10.307-2.58 17.473.92 21.5 10.5a618.284 618.284 0 0 0 12.5 30z"/><path style="opacity:1" fill="#fcfeff" d="M418.5 318.5c-2.393-2.236-4.227-4.903-5.5-8-.667-48-.667-96 0-144a57.09 57.09 0 0 1 5.5-7c9.231-4.186 16.731-2.186 22.5 6 .667 48.667.667 97.333 0 146-.883 2.602-2.383 4.769-4.5 6.5-5.953 3.104-11.953 3.27-18 .5z"/><path style="opacity:1" fill="#12b4ff" d="M123.5 167.5v118c-.193 3.949-.693 3.949-1.5 0-.667-39-.667-78 0-117l1-2c.399.228.565.562.5 1z"/><path style="opacity:1" fill="#2092ff" d="M566.5 187.5c-1.238.31-1.238.81 0 1.5 1.372.402 2.705.902 4 1.5.675 13.229 1.342 26.396 2 39.5-.916.278-1.582.778-2 1.5a1654.303 1654.303 0 0 0-48-9.5 47.356 47.356 0 0 1-12-5c-7.125-6.087-8.958-13.587-5.5-22.5a39.56 39.56 0 0 1 11.5-9.5c17.065-5.196 33.732-4.362 50 2.5z"/><path style="opacity:1" fill="#1f8eff" d="M566.5 187.5a47.343 47.343 0 0 1 14 7.5c2.982.498 5.982.665 9 .5.06.543.393.876 1 1a35.061 35.061 0 0 0 8-6 435.734 435.734 0 0 1 0 59c-4.394-5.727-9.727-10.393-16-14-.607.124-.94.457-1 1a124.253 124.253 0 0 0-11-5c.418-.722 1.084-1.222 2-1.5-.658-13.104-1.325-26.271-2-39.5a28.931 28.931 0 0 0-4-1.5c-1.238-.69-1.238-1.19 0-1.5z"/><path style="opacity:1" fill="#1f92ff" d="M501.5 242.5a168.414 168.414 0 0 0 17 5.5 384.994 384.994 0 0 1 38 7 114.436 114.436 0 0 1 13 6c2.117 1.731 3.617 3.898 4.5 6.5 2.878 11.752-.956 20.252-11.5 25.5-25.227 7.773-48.227 3.606-69-12.5.06-.543.393-.876 1-1 1.894 2.281 4.228 3.448 7 3.5-1.288-13.874-1.288-27.374 0-40.5z"/><path style="opacity:.996" fill="#16a5ff" d="M345.5 263.5c.31 1.238.81 1.238 1.5 0 .5 67.999.667 135.999.5 204-26.242 2.146-49.909-4.854-71-21-.167-54.334 0-108.668.5-163 .232-1.237.732-2.237 1.5-3a266.436 266.436 0 0 0 16.5 34c4.884 5.72 11.05 7.553 18.5 5.5 5.873-2.908 10.04-7.408 12.5-13.5a630.034 630.034 0 0 1 19.5-43z"/><path style="opacity:.992" fill="#17b2ff" d="M125.5 293.5c5.286 13.446 14.953 22.279 29 26.5 29.998.5 59.998.667 90 .5a3596.397 3596.397 0 0 1-85 1.5c11.662.5 23.329.667 35 .5 3.798.983 7.798 1.317 12 1v82a1518.488 1518.488 0 0 1-83-23c-.167-29.335 0-58.669.5-88 .383-.556.883-.889 1.5-1z"/><path style="opacity:.994" fill="#1f8eff" d="M598.5 294.5a3143.235 3143.235 0 0 1 1 110l-28-1a926.675 926.675 0 0 0-2-85c12.76-4.441 22.427-12.441 29-24z"/><path style="opacity:.993" fill="#1d92ff" d="M484.5 306.5c26.452 16.68 54.786 20.68 85 12a926.675 926.675 0 0 1 2 85 391.93 391.93 0 0 0-71 8 2244.61 2244.61 0 0 1 1-94.5 73.374 73.374 0 0 1-18-10c.228-.399.562-.565 1-.5z"/><path style="opacity:.993" fill="#11adff" d="M194.5 322.5c16.003-.167 32.003 0 48 .5-7.659.5-15.326.666-23 .5v88a2154.913 2154.913 0 0 1-13-6v-82c-4.202.317-8.202-.017-12-1z"/><path style="opacity:.968" fill="#208aff" d="M532.5 427.5a3558.565 3558.565 0 0 1-78 64c-10.844-10.407-12.344-22.074-4.5-35 9.727-11.457 21.894-19.291 36.5-23.5a150.393 150.393 0 0 1 46-5.5z"/><path style="opacity:.981" fill="#2187ff" d="M532.5 427.5c12.802.875 23.969 5.542 33.5 14 8.599 11.598 8.599 23.264 0 35-9.718 10.611-21.552 17.778-35.5 21.5a1246.435 1246.435 0 0 1-21 4.5h-28c-9.822-1.5-18.822-5.167-27-11a3558.565 3558.565 0 0 0 78-64z"/></svg>

<?xml version="1.0" encoding="UTF-8"?>
<!DOCTYPE svg PUBLIC "-//W3C//DTD SVG 1.1//EN" "http://www.w3.org/Graphics/SVG/1.1/DTD/svg11.dtd">
<svg xmlns="http://www.w3.org/2000/svg" version="1.1" width="700px" height="503px" style="shape-rendering:geometricPrecision; text-rendering:geometricPrecision; image-rendering:optimizeQuality; fill-rule:evenodd; clip-rule:evenodd" xmlns:xlink="http://www.w3.org/1999/xlink">
<g><path style="opacity:0.997" fill="#15a5ff" d="M 345.5,-0.5 C 346.167,-0.5 346.833,-0.5 347.5,-0.5C 347.183,61.1596 347.517,122.493 348.5,183.5C 336.251,213.833 323.584,244 310.5,274C 306.276,275.45 303.776,273.95 303,269.5C 293.487,245.812 283.987,222.145 274.5,198.5C 274.81,197.262 275.31,197.262 276,198.5C 276.5,135.834 276.667,73.1676 276.5,10.5C 299.321,5.05107 322.321,1.3844 345.5,-0.5 Z"/></g>
<g><path style="opacity:0.998" fill="#18a0ff" d="M 347.5,-0.5 C 363.167,-0.5 378.833,-0.5 394.5,-0.5C 394.5,150.5 394.5,301.5 394.5,452.5C 379.903,460.62 364.236,465.62 347.5,467.5C 347.667,399.499 347.5,331.499 347,263.5C 346.31,264.738 345.81,264.738 345.5,263.5C 357.033,236.079 368.866,208.746 381,181.5C 388.221,164.047 382.388,156.214 363.5,158C 361.376,159.122 359.543,160.622 358,162.5C 354.819,169.526 351.652,176.526 348.5,183.5C 347.517,122.493 347.183,61.1596 347.5,-0.5 Z"/></g>
<g><path style="opacity:0.997" fill="#189dff" d="M 394.5,-0.5 C 398.833,-0.5 403.167,-0.5 407.5,-0.5C 410.962,0.481638 414.629,0.814971 418.5,0.5C 417.84,52.8833 418.507,105.05 420.5,157C 419.328,157.419 418.328,158.085 417.5,159C 417.728,159.399 418.062,159.565 418.5,159.5C 416.5,161.671 414.666,164.004 413,166.5C 412.333,214.5 412.333,262.5 413,310.5C 414.273,313.597 416.107,316.264 418.5,318.5C 418.062,318.435 417.728,318.601 417.5,319C 418.328,319.915 419.328,320.581 420.5,321C 418.509,360.613 417.843,400.447 418.5,440.5C 410.818,445.008 402.818,449.008 394.5,452.5C 394.5,301.5 394.5,150.5 394.5,-0.5 Z"/></g>
<g><path style="opacity:0.997" fill="#1c99ff" d="M 418.5,0.5 C 446.201,2.59997 473.535,6.9333 500.5,13.5C 500.667,62.8345 500.5,112.168 500,161.5C 499.25,162.126 498.416,162.626 497.5,163C 497.728,163.399 498.062,163.565 498.5,163.5C 474.139,180.443 468.973,202.11 483,228.5C 488.284,234.534 494.451,239.201 501.5,242.5C 500.212,255.626 500.212,269.126 501.5,283C 498.728,282.948 496.394,281.781 494.5,279.5C 493.893,279.624 493.56,279.957 493.5,280.5C 485.665,276.485 479.499,278.152 475,285.5C 474.333,289.167 474.333,292.833 475,296.5C 477.696,300.361 480.863,303.694 484.5,306.5C 484.062,306.435 483.728,306.601 483.5,307C 489.01,311.168 495.01,314.502 501.5,317C 500.504,348.427 500.171,379.927 500.5,411.5C 486.548,414.239 472.881,418.072 459.5,423C 445.686,428.547 432.02,434.38 418.5,440.5C 417.843,400.447 418.509,360.613 420.5,321C 419.328,320.581 418.328,319.915 417.5,319C 417.728,318.601 418.062,318.435 418.5,318.5C 424.547,321.27 430.547,321.104 436.5,318C 438.617,316.269 440.117,314.102 441,311.5C 441.667,262.833 441.667,214.167 441,165.5C 435.231,157.314 427.731,155.314 418.5,159.5C 418.062,159.565 417.728,159.399 417.5,159C 418.328,158.085 419.328,157.419 420.5,157C 418.507,105.05 417.84,52.8833 418.5,0.5 Z"/></g>
<g><path style="opacity:0.997" fill="#14aaff" d="M 276.5,10.5 C 276.667,73.1676 276.5,135.834 276,198.5C 275.31,197.262 274.81,197.262 274.5,198.5C 270.11,188.704 265.943,178.704 262,168.5C 257.973,158.92 250.807,155.42 240.5,158C 231.938,163.239 230.105,170.405 235,179.5C 249.603,213.15 264.103,246.816 278.5,280.5C 277.732,281.263 277.232,282.263 277,283.5C 276.5,337.832 276.333,392.166 276.5,446.5C 258.804,432.823 239.804,421.157 219.5,411.5C 219.5,382.167 219.5,352.833 219.5,323.5C 227.174,323.666 234.841,323.5 242.5,323C 226.503,322.5 210.503,322.333 194.5,322.5C 182.829,322.667 171.162,322.5 159.5,322C 188.003,321.832 216.336,321.332 244.5,320.5C 251.831,318.825 255.498,314.158 255.5,306.5C 254.294,300.116 250.628,295.616 244.5,293C 218.663,292.832 192.997,292.332 167.5,291.5C 180.323,290.505 193.323,290.171 206.5,290.5C 210.833,290.5 215.167,290.5 219.5,290.5C 219.5,202.833 219.5,115.167 219.5,27.5C 237.893,20.1472 256.893,14.4805 276.5,10.5 Z"/></g>
<g><path style="opacity:0.996" fill="#1e92ff" d="M 500.5,13.5 C 525.418,19.469 549.084,28.469 571.5,40.5C 571.667,79.8347 571.5,119.168 571,158.5C 567.815,156.748 564.648,156.415 561.5,157.5C 545.138,154.693 528.804,154.86 512.5,158C 507.77,159.742 503.103,161.575 498.5,163.5C 498.062,163.565 497.728,163.399 497.5,163C 498.416,162.626 499.25,162.126 500,161.5C 500.5,112.168 500.667,62.8345 500.5,13.5 Z"/></g>
<g><path style="opacity:0.998" fill="#12adff" d="M 219.5,27.5 C 219.5,115.167 219.5,202.833 219.5,290.5C 215.167,290.5 210.833,290.5 206.5,290.5C 206.5,204.5 206.5,118.5 206.5,32.5C 210.534,30.2628 214.868,28.5961 219.5,27.5 Z"/></g>
<g><path style="opacity:0.997" fill="#11b1ff" d="M 206.5,32.5 C 206.5,118.5 206.5,204.5 206.5,290.5C 193.323,290.171 180.323,290.505 167.5,291.5C 160.576,289.077 155.742,284.41 153,277.5C 152.667,240.5 152.333,203.5 152,166.5C 146.671,157.171 139.171,155.005 129.5,160C 127.598,161.73 125.931,163.563 124.5,165.5C 123.528,135.888 123.194,105.888 123.5,75.5C 149.254,57.7876 176.92,43.4543 206.5,32.5 Z"/></g>
<g><path style="opacity:0.995" fill="#1f8eff" d="M 571.5,40.5 C 581.507,45.1652 590.841,50.8318 599.5,57.5C 599.833,96.839 599.5,136.172 598.5,175.5C 594.761,171.432 590.428,168.099 585.5,165.5C 584.893,165.624 584.56,165.957 584.5,166.5C 577.222,162.518 569.555,159.518 561.5,157.5C 564.648,156.415 567.815,156.748 571,158.5C 571.5,119.168 571.667,79.8347 571.5,40.5 Z"/></g>
<g><path style="opacity:0.996" fill="#208bff" d="M 599.5,57.5 C 616.004,67.9986 630.337,80.9986 642.5,96.5C 642.5,198.167 642.5,299.833 642.5,401.5C 628.415,405.522 614.082,406.522 599.5,404.5C 599.808,367.809 599.475,331.143 598.5,294.5C 602.593,283.099 603.426,271.433 601,259.5C 597.546,249.216 591.046,241.549 581.5,236.5C 581.56,235.957 581.893,235.624 582.5,235.5C 588.773,239.107 594.106,243.773 598.5,249.5C 599.833,229.833 599.833,210.167 598.5,190.5C 596.116,192.885 593.45,194.885 590.5,196.5C 589.893,196.376 589.56,196.043 589.5,195.5C 596.571,192.024 599.405,186.358 598,178.5C 594.855,173.005 590.355,169.005 584.5,166.5C 584.56,165.957 584.893,165.624 585.5,165.5C 590.428,168.099 594.761,171.432 598.5,175.5C 599.5,136.172 599.833,96.839 599.5,57.5 Z"/></g>
<g><path style="opacity:0.995" fill="#0eb8ff" d="M 123.5,75.5 C 123.194,105.888 123.528,135.888 124.5,165.5C 124.672,166.492 124.338,167.158 123.5,167.5C 123.565,167.062 123.399,166.728 123,166.5C 122.667,167.167 122.333,167.833 122,168.5C 121.333,207.5 121.333,246.5 122,285.5C 122.807,289.449 123.307,289.449 123.5,285.5C 124.768,287.905 125.435,290.572 125.5,293.5C 124.883,293.611 124.383,293.944 124,294.5C 123.5,323.831 123.333,353.165 123.5,382.5C 98.6717,375.895 75.005,366.562 52.5,354.5C 52.5,282.167 52.5,209.833 52.5,137.5C 73.1311,113.192 96.7977,92.5253 123.5,75.5 Z"/></g>
<g><path style="opacity:0.986" fill="#2187ff" d="M 642.5,96.5 C 667.758,125.683 684.591,159.349 693,197.5C 695.789,210.879 697.956,224.212 699.5,237.5C 699.5,252.5 699.5,267.5 699.5,282.5C 697.069,315.211 688.235,346.211 673,375.5C 665.925,387.788 655.759,396.455 642.5,401.5C 642.5,299.833 642.5,198.167 642.5,96.5 Z"/></g>
<g><path style="opacity:0.981" fill="#0cbdff" d="M 52.5,137.5 C 52.5,209.833 52.5,282.167 52.5,354.5C 23.256,338.936 5.5893,314.936 -0.5,282.5C -0.5,271.167 -0.5,259.833 -0.5,248.5C 6.182,206.14 23.8487,169.14 52.5,137.5 Z"/></g>
<g><path style="opacity:1" fill="#fdfdff" d="M 561.5,157.5 C 569.555,159.518 577.222,162.518 584.5,166.5C 590.355,169.005 594.855,173.005 598,178.5C 599.405,186.358 596.571,192.024 589.5,195.5C 586.482,195.665 583.482,195.498 580.5,195C 576.256,191.712 571.59,189.212 566.5,187.5C 550.232,180.638 533.565,179.804 516.5,185C 512.059,187.442 508.226,190.608 505,194.5C 501.542,203.413 503.375,210.913 510.5,217C 514.271,219.219 518.271,220.885 522.5,222C 538.593,224.939 554.593,228.106 570.5,231.5C 574.178,232.957 577.845,234.623 581.5,236.5C 591.046,241.549 597.546,249.216 601,259.5C 603.426,271.433 602.593,283.099 598.5,294.5C 591.927,306.059 582.26,314.059 569.5,318.5C 539.286,327.18 510.952,323.18 484.5,306.5C 480.863,303.694 477.696,300.361 475,296.5C 474.333,292.833 474.333,289.167 475,285.5C 479.499,278.152 485.665,276.485 493.5,280.5C 514.273,296.606 537.273,300.773 562.5,293C 573.044,287.752 576.878,279.252 574,267.5C 573.117,264.898 571.617,262.731 569.5,261C 565.286,258.726 560.953,256.726 556.5,255C 543.959,252.032 531.292,249.699 518.5,248C 512.727,246.465 507.061,244.631 501.5,242.5C 494.451,239.201 488.284,234.534 483,228.5C 468.973,202.11 474.139,180.443 498.5,163.5C 503.103,161.575 507.77,159.742 512.5,158C 528.804,154.86 545.138,154.693 561.5,157.5 Z"/></g>
<g><path style="opacity:1" fill="#fdfeff" d="M 167.5,291.5 C 192.997,292.332 218.663,292.832 244.5,293C 250.628,295.616 254.294,300.116 255.5,306.5C 255.498,314.158 251.831,318.825 244.5,320.5C 214.498,320.667 184.498,320.5 154.5,320C 140.453,315.779 130.786,306.946 125.5,293.5C 125.435,290.572 124.768,287.905 123.5,285.5C 123.5,246.167 123.5,206.833 123.5,167.5C 124.338,167.158 124.672,166.492 124.5,165.5C 125.931,163.563 127.598,161.73 129.5,160C 139.171,155.005 146.671,157.171 152,166.5C 152.333,203.5 152.667,240.5 153,277.5C 155.742,284.41 160.576,289.077 167.5,291.5 Z"/></g>
<g><path style="opacity:1" fill="#fdfeff" d="M 274.5,198.5 C 283.987,222.145 293.487,245.812 303,269.5C 303.776,273.95 306.276,275.45 310.5,274C 323.584,244 336.251,213.833 348.5,183.5C 351.652,176.526 354.819,169.526 358,162.5C 359.543,160.622 361.376,159.122 363.5,158C 382.388,156.214 388.221,164.047 381,181.5C 368.866,208.746 357.033,236.079 345.5,263.5C 338.501,277.505 332.001,291.839 326,306.5C 323.54,312.592 319.373,317.092 313.5,320C 306.05,322.053 299.884,320.22 295,314.5C 288.701,303.569 283.201,292.236 278.5,280.5C 264.103,246.816 249.603,213.15 235,179.5C 230.105,170.405 231.938,163.239 240.5,158C 250.807,155.42 257.973,158.92 262,168.5C 265.943,178.704 270.11,188.704 274.5,198.5 Z"/></g>
<g><path style="opacity:1" fill="#fcfeff" d="M 418.5,318.5 C 416.107,316.264 414.273,313.597 413,310.5C 412.333,262.5 412.333,214.5 413,166.5C 414.666,164.004 416.5,161.671 418.5,159.5C 427.731,155.314 435.231,157.314 441,165.5C 441.667,214.167 441.667,262.833 441,311.5C 440.117,314.102 438.617,316.269 436.5,318C 430.547,321.104 424.547,321.27 418.5,318.5 Z"/></g>
<g><path style="opacity:1" fill="#12b4ff" d="M 123.5,167.5 C 123.5,206.833 123.5,246.167 123.5,285.5C 123.307,289.449 122.807,289.449 122,285.5C 121.333,246.5 121.333,207.5 122,168.5C 122.333,167.833 122.667,167.167 123,166.5C 123.399,166.728 123.565,167.062 123.5,167.5 Z"/></g>
<g><path style="opacity:1" fill="#2092ff" d="M 566.5,187.5 C 565.262,187.81 565.262,188.31 566.5,189C 567.872,189.402 569.205,189.902 570.5,190.5C 571.175,203.729 571.842,216.896 572.5,230C 571.584,230.278 570.918,230.778 570.5,231.5C 554.593,228.106 538.593,224.939 522.5,222C 518.271,220.885 514.271,219.219 510.5,217C 503.375,210.913 501.542,203.413 505,194.5C 508.226,190.608 512.059,187.442 516.5,185C 533.565,179.804 550.232,180.638 566.5,187.5 Z"/></g>
<g><path style="opacity:1" fill="#1f8eff" d="M 566.5,187.5 C 571.59,189.212 576.256,191.712 580.5,195C 583.482,195.498 586.482,195.665 589.5,195.5C 589.56,196.043 589.893,196.376 590.5,196.5C 593.45,194.885 596.116,192.885 598.5,190.5C 599.833,210.167 599.833,229.833 598.5,249.5C 594.106,243.773 588.773,239.107 582.5,235.5C 581.893,235.624 581.56,235.957 581.5,236.5C 577.845,234.623 574.178,232.957 570.5,231.5C 570.918,230.778 571.584,230.278 572.5,230C 571.842,216.896 571.175,203.729 570.5,190.5C 569.205,189.902 567.872,189.402 566.5,189C 565.262,188.31 565.262,187.81 566.5,187.5 Z"/></g>
<g><path style="opacity:1" fill="#1f92ff" d="M 501.5,242.5 C 507.061,244.631 512.727,246.465 518.5,248C 531.292,249.699 543.959,252.032 556.5,255C 560.953,256.726 565.286,258.726 569.5,261C 571.617,262.731 573.117,264.898 574,267.5C 576.878,279.252 573.044,287.752 562.5,293C 537.273,300.773 514.273,296.606 493.5,280.5C 493.56,279.957 493.893,279.624 494.5,279.5C 496.394,281.781 498.728,282.948 501.5,283C 500.212,269.126 500.212,255.626 501.5,242.5 Z"/></g>
<g><path style="opacity:0.996" fill="#16a5ff" d="M 345.5,263.5 C 345.81,264.738 346.31,264.738 347,263.5C 347.5,331.499 347.667,399.499 347.5,467.5C 321.258,469.646 297.591,462.646 276.5,446.5C 276.333,392.166 276.5,337.832 277,283.5C 277.232,282.263 277.732,281.263 278.5,280.5C 283.201,292.236 288.701,303.569 295,314.5C 299.884,320.22 306.05,322.053 313.5,320C 319.373,317.092 323.54,312.592 326,306.5C 332.001,291.839 338.501,277.505 345.5,263.5 Z"/></g>
<g><path style="opacity:0.992" fill="#17b2ff" d="M 125.5,293.5 C 130.786,306.946 140.453,315.779 154.5,320C 184.498,320.5 214.498,320.667 244.5,320.5C 216.336,321.332 188.003,321.832 159.5,322C 171.162,322.5 182.829,322.667 194.5,322.5C 198.298,323.483 202.298,323.817 206.5,323.5C 206.5,350.833 206.5,378.167 206.5,405.5C 178.514,398.59 150.847,390.923 123.5,382.5C 123.333,353.165 123.5,323.831 124,294.5C 124.383,293.944 124.883,293.611 125.5,293.5 Z"/></g>
<g><path style="opacity:0.994" fill="#1f8eff" d="M 598.5,294.5 C 599.475,331.143 599.808,367.809 599.5,404.5C 590.167,404.167 580.833,403.833 571.5,403.5C 572.131,375.009 571.464,346.676 569.5,318.5C 582.26,314.059 591.927,306.059 598.5,294.5 Z"/></g>
<g><path style="opacity:0.993" fill="#1d92ff" d="M 484.5,306.5 C 510.952,323.18 539.286,327.18 569.5,318.5C 571.464,346.676 572.131,375.009 571.5,403.5C 547.543,404.01 523.877,406.677 500.5,411.5C 500.171,379.927 500.504,348.427 501.5,317C 495.01,314.502 489.01,311.168 483.5,307C 483.728,306.601 484.062,306.435 484.5,306.5 Z"/></g>
<g><path style="opacity:0.993" fill="#11adff" d="M 194.5,322.5 C 210.503,322.333 226.503,322.5 242.5,323C 234.841,323.5 227.174,323.666 219.5,323.5C 219.5,352.833 219.5,382.167 219.5,411.5C 215.094,409.484 210.761,407.484 206.5,405.5C 206.5,378.167 206.5,350.833 206.5,323.5C 202.298,323.817 198.298,323.483 194.5,322.5 Z"/></g>
<g><path style="opacity:0.968" fill="#208aff" d="M 532.5,427.5 C 506.791,449.211 480.791,470.545 454.5,491.5C 443.656,481.093 442.156,469.426 450,456.5C 459.727,445.043 471.894,437.209 486.5,433C 501.546,428.791 516.88,426.958 532.5,427.5 Z"/></g>
<g><path style="opacity:0.981" fill="#2187ff" d="M 532.5,427.5 C 545.302,428.375 556.469,433.042 566,441.5C 574.599,453.098 574.599,464.764 566,476.5C 556.282,487.111 544.448,494.278 530.5,498C 523.379,499.589 516.379,501.089 509.5,502.5C 500.167,502.5 490.833,502.5 481.5,502.5C 471.678,501 462.678,497.333 454.5,491.5C 480.791,470.545 506.791,449.211 532.5,427.5 Z"/></g>
</svg>
